X: 15
T:Red Haired Boy
M:4/4
L:1/8
C:
S:AABB form
R:Key of A
K:A
AF|:E2A2ABcd|efecd2cd|e2A2ABcA|B2=G2G2GF|E2A2ABcd|efecd2cd|e2a2a=ged|c2A
2A2AF:|!
|:ef|=gfef gfef|=gfedc2cd|e2A2ABcA|B2=G2G2GF|E2A2ABcd|efecd2cd|e2a2a=ged
|cA2A4:|
